X: 1335
T: Mahveder Her Neş`eyi
C: Neyzen Rıza Bey
O: Turkey
F: http://compmusic.upf.edu/node/140
N: acemasiran--sarki--agiraksak--mahveder_her--neyzen_riza_bey
N: makam= acemasiran
N: form= sarki
N: usul= agiraksak = 9/4
M: 9/4
L: 1/16
K: C _B   
Q: 1/4=66
%%MIDI tuningsystem comma53
e2f2 g2b2 a3b g3a f3g e3f d3e c2d2 c2B2  | \
w:  ARANAĞME  | 
A3B c2d2 c2B2 A2G2 A3G GFFE F4 c2de f4  | 
w:   | 
e2f2 g2b2 a3b g3a f3g e3f d3e c2d2 c2B2  | \
w:  ARANAĞME  | 
A3B c2d2 c2B2 A2G2 A3G GFFE F8 z4  | 
w:   | 
z8 z2a2 g2a2 g2f2 e2d2 d2{f}ed c2d2 e2f2  | \
w:  Mah *  ve der  *  *  *  her   | 
g2{b}ag fef2 z2ef e2f2 g3b a2g2 g3f f3e e3d  | 
w:  *  *  *  *  *  *  *  neş *  *  e yi  *  *  *  üf  | 
d2{f}ed c=Bc4cd c2d2 e2f2 g2a2 c'3b b3a a3g  | \
w:  *  *  *  *  *  *  *  tâ *  *  de lik  *  *  *  dil  | 
g2{b}ag fed2 d2a2 g2f2 e2f2 g2{a}gf f6c2 d2e2  | 
w:  *  *  *  *  *  *  *  *  dâ *  *  *  *  *  *  de *  lik   SAZ  | 
f8 z2f4f2 e2f2 g2{a}gf f3e e3d d3c  | \
w:  *  Yâr  yâr_ ol *  *  *  *  *  sa   | 
c2{e}dc B2A2 z2A4d2 c3B B3A A4 ^G4 A2{c}BA  | 
w:  *  *  *  *  *  *  bi le  *  *  *  *  pek   | 
A3c =Bdc2 z2c4f2 f3_e e3d d3c c3_B B3A  | \
w:  *  *  *  *  *  baş ka dır  *  *  *  â  | 
A3G AGF4GB A2G2 F3E DEFG E2F4c_3/4d c3/2_1/4B/AB  | 
w:  *  *  *  *  *  zâ *  *  *  *  *  *  *  de *  lik   *  SAZ  | 
c8 z2c4_3/4de d2c6 _1/4B4 c3B A4  | \
w:  *  Bir  be *  lâ *  dır   | 
A2c4(3_1/4BAB B2B4_3/4d2 d3c c3B B3A A2B2 AG^F^E  | 
w:  *  *  *  *  *  *  ki  çe kil *  *  *  mez   | 
^F3_3/4d c_1/4Bc2 z2cd c2d2 e2f2 g2a2 c'3b b3a a3g  | \
w:  SAZ *  *  *  *  mih *  *  net_ i  *  *  *  â  | 
g2{b}ag fed4a2 g2f2 e2f2 g2{a}gf f6c2 d2e2  | 
w:  *  *  *  *  *  *  *  vâ *  *  *  *  *  *  re *  lik   SAZ  | 
f8 z2f4f2 e2f2 g2{a}gf f3e e3d d3c  | \
w:  *  Yâr  yâr_ ol *  *  *  *  *  sa   | 
c2{e}dc B2A2 z2A4d2 c3B B3A A4 ^G4 A2{c}BA  | 
w:  *  *  *  *  *  *  bi le  *  *  *  *  pek   | 
A3c =Bdc2 z2c4f2 f3_e e3d d3c c3_B B3A  | \
w:  *  *  *  *  *  baş ka dır  *  *  *  â  | 
A3G AGF4GB A2G2 F3E DEFG E2F4|
w:  *  *  *  *  *  zâ *  *  *  *  *  *  *  de *  lik    | 


